X: 28300
T: Mrs.Rose Of Kilravock's
R: jig
M: 6/8
K: Dmajor
A,|:DED dz=c|~BAG FGA|BAG FED|CEE ECA,|
DED dz=c|~BAG FGA|B2A (3BcdB|AFD D2:|
c|:ddd dBA|Bdd d2f|ddd dBA|Bee e2 f|
ded dBA|gag f2 e|f2 e (3fgae|fdc d2:|

